lib/logo_tmp/nrk-logo-nrk-tv-title-below.svg

<svg width="40" height="36" viewBox="0 0 40 36" fill="none" xmlns="http://www.w3.org/2000/svg">
<path d="M0 15.0035V1.00477H4.59339V15.0035H0ZM10.8428 3.23274L13.4844 15.0035H8.45737L5.30307 1.00477H8.12254C8.76907 0.99638 9.39641 1.22429 9.88691 1.64562C10.3782 2.04928 10.7158 2.60965 10.8428 3.23274ZM14.1744 15.0035V1.00477H18.7678V15.0035H14.1744ZM22.2372 6.32828C21.7422 6.33311 21.2552 6.2036 20.828 5.95362C20.4064 5.70997 20.0563 5.35978 19.8127 4.9382C19.5624 4.51089 19.4329 4.02372 19.4378 3.52854C19.4321 3.03637 19.5618 2.55211 19.8127 2.12866C20.0589 1.71165 20.4086 1.36528 20.828 1.12311C21.2553 0.873419 21.7423 0.743933 22.2372 0.748447C22.7292 0.743148 23.2133 0.87275 23.6369 1.12311C24.0521 1.3674 24.3981 1.71349 24.6424 2.12866C24.893 2.55223 25.0226 3.03641 25.0172 3.52854C25.0218 4.02368 24.8923 4.51076 24.6424 4.9382C24.4007 5.35794 24.0542 5.70783 23.6369 5.95362C23.2133 6.20447 22.7289 6.33411 22.2366 6.32828H22.2372ZM25.7269 15.0035V1.00477H30.3207V15.0035H25.7269ZM36.136 8.65477C36.1489 8.66835 36.2475 8.82936 36.4317 9.13782C36.6159 9.44627 36.8558 9.84063 37.1513 10.3208C37.447 10.8008 37.759 11.3101 38.0874 11.8488C38.4157 12.3875 38.7247 12.8969 39.0143 13.3769C39.3028 13.8569 39.6313 14.3991 40 15.0035H34.9531C34.6375 14.4909 34.3515 14.0275 34.0952 13.6135C33.8389 13.1994 33.5665 12.7525 33.2778 12.2727C32.9884 11.7934 32.7024 11.3268 32.4196 10.8729C32.1368 10.419 31.8938 10.0214 31.6905 9.68007C31.4863 9.33853 31.3449 9.10848 31.2663 8.98996C31.0713 8.69585 30.9559 8.35618 30.9315 8.00413C30.951 7.66626 31.0597 7.33964 31.2466 7.05746C31.3254 6.92602 31.47 6.69266 31.6803 6.35748C31.8906 6.0223 32.137 5.62473 32.4196 5.16468C32.7021 4.70463 32.9882 4.2347 33.2778 3.75494C33.5674 3.27517 33.8398 2.82494 34.0952 2.40432C34.3519 1.98414 34.6379 1.51752 34.9531 1.00445H40L36.0962 7.37291C35.9754 7.56199 35.9073 7.7799 35.8991 8.00413C35.9121 8.23954 35.9942 8.46587 36.1353 8.65477H36.136Z" fill="white"/>
<path d="M0 22.7591H4.54558V34.9819H6.6298V22.7591H11.1555V21.0298H0V22.7591Z" fill="white"/>
<path d="M22.1126 21.0298L19.155 29.7155C19.0087 30.1609 18.8598 30.6325 18.708 31.1304C18.5563 31.6282 18.4108 32.126 18.2716 32.6238C18.1995 32.8808 18.1304 33.1289 18.0642 33.3679C17.9947 33.1154 17.9216 32.8554 17.8449 32.5845C17.6987 32.0736 17.5497 31.566 17.3979 31.0616C17.2462 30.5572 17.0907 30.0823 16.9315 29.6369L14.0334 21.0298H11.8102L16.6933 34.9819H19.2737L24.1766 21.0298H22.1126Z" fill="white"/>
</svg>

<svg xmlns="http://www.w3.org/2000/svg" viewBox="0 0 40 36"><path fill="#fff" d="M0 15.004v-14h4.593v14H0ZM10.843 3.232l2.641 11.77H8.457L5.303 1.006h2.82a2.655 2.655 0 0 1 1.764.64c.491.404.829.965.956 1.588Zm3.331 11.77V1.006h4.594v13.998h-4.594Zm8.063-8.675a2.737 2.737 0 0 1-1.409-.374 2.778 2.778 0 0 1-1.015-1.016 2.735 2.735 0 0 1-.375-1.41 2.685 2.685 0 0 1 .375-1.4 2.812 2.812 0 0 1 3.824-1.005c.415.244.761.59 1.005 1.006.251.423.38.907.375 1.4.005.495-.125.982-.375 1.41a2.8 2.8 0 0 1-1.005 1.015c-.424.25-.908.38-1.4.374Zm3.49 8.675V1.006h4.594v13.998h-4.594Zm10.409-6.348c.013.013.111.174.296.483.184.308.424.703.72 1.183a384.573 384.573 0 0 1 1.862 3.056c.289.48.617 1.022.986 1.627h-5.047l-.858-1.39c-.256-.415-.529-.862-.817-1.341-.29-.48-.576-.946-.858-1.4a71.017 71.017 0 0 1-.73-1.193 21.1 21.1 0 0 0-.424-.69 2.04 2.04 0 0 1-.334-.986c.019-.338.128-.664.315-.947.078-.131.223-.364.433-.7a216.97 216.97 0 0 0 1.598-2.603l.817-1.35.858-1.4H40l-3.904 6.369c-.12.189-.189.407-.197.631.013.236.095.462.236.65h.001ZM0 22.76h4.546v12.222H6.63V22.759h4.526v-1.73H0v1.73ZM22.113 21.03l-2.958 8.685a69.382 69.382 0 0 0-.883 2.909l-.208.744a116.559 116.559 0 0 0-.666-2.306c-.152-.505-.307-.98-.466-1.425l-2.899-8.607H11.81l4.883 13.952h2.58l4.904-13.952h-2.064Z"/></svg>
